assets/album.svg

<svg fill="none" height="23" viewBox="0 0 26 23" width="26" xmlns="http://www.w3.org/2000/svg"><g clip-rule="evenodd" fill="#fff" fill-rule="evenodd"><path d="m22.3716 6.95302c0-1.83677-1.4886-3.32558-3.3256-3.32558h-15.72042c-1.83677 0-3.32558 1.4886-3.32558 3.32558v12.09258c0 1.8368 1.4886 3.3256 3.32558 3.3256h15.72042c1.8368 0 3.3256-1.4886 3.3256-3.3256zm-1.8139 0v12.09258c0 .8345-.6772 1.5117-1.5117 1.5117h-15.72042c-.8345 0-1.51167-.6772-1.51167-1.5117v-12.09258c0-.8345.67717-1.51166 1.51167-1.51166h15.72042c.8345 0 1.5117.67716 1.5117 1.51166z"/><path d="m4.48643 5.44072.04717.00122.03867-.00486c.1741-.02531.86829-.17289.86829-.91789v-1.19361c0-.40145.15953-.78491.44255-1.06891.28424-.28302.66747-.44255 1.06891-.44255h15.72038c.8346 0 1.5117.67716 1.5117 1.51166v12.09262c0 .4014-.1595.7849-.4425 1.0689-.2843.283-.6675.4425-1.069.4425h-1.2092c-.5006 0-.9069.4063-.9069.907 0 .5006.4063.907.9069.907h1.2092c.8817 0 1.7281-.3507 2.3521-.9736.6227-.6239.9735-1.4706.9735-2.352v-12.09262c0-1.83677-1.4886-3.32558-3.3256-3.32558h-15.72037c-.88167 0-1.72809.350635-2.35203.973554-.62274.623936-.97355 1.470566-.97355 2.352026v1.19361.01579c0 .06417.00729.12693.01943.18746.02409.12208.07005.22492.12815.30833.15487.23585.41481.39416.7122.40995z"/><path d="m2.37916 21.4906 5.06683-5.2531c.10892-.1125.28424-.1245.40631-.0265l1.27461 1.0195c.87319.6991 2.14049.5962 2.89129-.2334l4.0317-4.4575c.0594-.0653.1452-.1016.2335-.0992.0882.0025.1704.0436.2261.1126 1.4706 1.8164 4.2506 5.2505 4.2506 5.2505.3156.3893.8863.4486 1.2758.1342.3893-.3156.4486-.8863.1342-1.2758 0 0-2.7802-3.433-4.2506-5.2505-.3893-.48-.9687-.7666-1.5865-.7836-.6179-.017-1.2129.237-1.6277.6954l-4.0329 4.4574c-.1065.1185-.2879.133-.4124.0326l-1.27458-1.0183c-.85373-.6832-2.086-.6035-2.84536.1826l-5.06683 5.2531c-.346992.3604-.337477.9347.02288 1.2831.36035.347.93592.3375 1.28311-.0228z"/><path d="m6.95174 6.65186c-1.16811 0-2.11617.94805-2.11617 2.11616s.94806 2.11618 2.11617 2.11618 2.11616-.94807 2.11616-2.11618-.94805-2.11616-2.11616-2.11616zm0 1.81391c.16681 0 .30225.13544.30225.30225s-.13544.30225-.30225.30225c-.16682 0-.30225-.13544-.30225-.30225s.13543-.30225.30225-.30225z"/></g></svg>

<svg width="26" height="23" viewBox="0 0 26 23" fill="none" xmlns="http://www.w3.org/2000/svg">
<path fill-rule="evenodd" clip-rule="evenodd" d="M22.3716 6.95302C22.3716 5.11625 20.883 3.62744 19.046 3.62744H3.32558C1.48881 3.62744 0 5.11604 0 6.95302V19.0456C0 20.8824 1.4886 22.3712 3.32558 22.3712H19.046C20.8828 22.3712 22.3716 20.8826 22.3716 19.0456V6.95302ZM20.5577 6.95302V19.0456C20.5577 19.8801 19.8805 20.5573 19.046 20.5573H3.32558C2.49108 20.5573 1.81391 19.8801 1.81391 19.0456V6.95302C1.81391 6.11852 2.49108 5.44136 3.32558 5.44136H19.046C19.8805 5.44136 20.5577 6.11852 20.5577 6.95302Z" fill="white"/>
<path fill-rule="evenodd" clip-rule="evenodd" d="M4.48643 5.44072L4.5336 5.44194L4.57227 5.43708C4.74637 5.41177 5.44056 5.26419 5.44056 4.51919V3.32558C5.44056 2.92413 5.60009 2.54067 5.88311 2.25667C6.16735 1.97365 6.55058 1.81412 6.95202 1.81412H22.6724C23.507 1.81412 24.1841 2.49128 24.1841 3.32578V15.4184C24.1841 15.8198 24.0246 16.2033 23.7416 16.4873C23.4573 16.7703 23.0741 16.9298 22.6726 16.9298H21.4634C20.9628 16.9298 20.5565 17.3361 20.5565 17.8368C20.5565 18.3374 20.9628 18.7438 21.4634 18.7438H22.6726C23.5543 18.7438 24.4007 18.3931 25.0247 17.7702C25.6474 17.1463 25.9982 16.2996 25.9982 15.4182V3.32558C25.9982 1.48881 24.5096 0 22.6726 0H6.95223C6.07056 0 5.22414 0.350635 4.6002 0.973554C3.97746 1.59749 3.62665 2.44412 3.62665 3.32558V4.51919V4.53498C3.62665 4.59915 3.63394 4.66191 3.64608 4.72244C3.67017 4.84452 3.71613 4.94736 3.77423 5.03077C3.9291 5.26662 4.18904 5.42493 4.48643 5.44072L4.48643 5.44072Z" fill="white"/>
<path fill-rule="evenodd" clip-rule="evenodd" d="M2.37916 21.4906L7.44599 16.2375C7.55491 16.125 7.73023 16.113 7.8523 16.211L9.12691 17.2305C10.0001 17.9296 11.2674 17.8267 12.0182 16.9971L16.0499 12.5396C16.1093 12.4743 16.1951 12.438 16.2834 12.4404C16.3716 12.4429 16.4538 12.484 16.5095 12.553C17.9801 14.3694 20.7601 17.8035 20.7601 17.8035C21.0757 18.1928 21.6464 18.2521 22.0359 17.9377C22.4252 17.6221 22.4845 17.0514 22.1701 16.6619C22.1701 16.6619 19.3899 13.2289 17.9195 11.4114C17.5302 10.9314 16.9508 10.6448 16.333 10.6278C15.7151 10.6108 15.1201 10.8648 14.7053 11.3232L10.6724 15.7806C10.5659 15.8991 10.3845 15.9136 10.26 15.8132L8.98542 14.7949C8.13169 14.1117 6.89942 14.1914 6.14006 14.9775L1.07323 20.2306C0.726238 20.591 0.735753 21.1653 1.09611 21.5137C1.45646 21.8607 2.03203 21.8512 2.37922 21.4909L2.37916 21.4906Z" fill="white"/>
<path fill-rule="evenodd" clip-rule="evenodd" d="M6.95174 6.65186C5.78363 6.65186 4.83557 7.59991 4.83557 8.76802C4.83557 9.93613 5.78363 10.8842 6.95174 10.8842C8.11985 10.8842 9.0679 9.93613 9.0679 8.76802C9.0679 7.59991 8.11985 6.65186 6.95174 6.65186ZM6.95174 8.46577C7.11855 8.46577 7.25399 8.60121 7.25399 8.76802C7.25399 8.93483 7.11855 9.07027 6.95174 9.07027C6.78492 9.07027 6.64949 8.93483 6.64949 8.76802C6.64949 8.60121 6.78492 8.46577 6.95174 8.46577Z" fill="white"/>
</svg>
